X:1
T:- Canon -
T:- Canon -
T:- in D minor -
T:Author:
C:Author:
%%score [ [ 1 2 ] 3 4 ]
L:1/8
Q:1/4=56
M:4/4
K:F
V:1 treble nm="Violin I" snm="Vln. I"
V:2 treble nm="Violin II" snm="Vln. II"
V:3 treble nm="Violino III" snm="Vln."
V:4 bass nm="Violoncello" snm="Vc."
V:1
 z8 | z8 | z8 | z8 |!p!"_espr." f2 e2 d2 c2 | B2 A2 B2 ^c2 | d2 ^c2 B2 A2 |!>(! G2 F2 G2 E2!>)! | %8
 (DF) (AG) (FD) (FE) | (DB,) (DA) (GB) (AG) | (FD)"_cresc." (Ec) (df) (aA) | (BG) (AF) Dd T^c>d | %12
!mf! d/^c/d/D/ ^C/A/!<(!E/F/ D/d/=c/B/ c/f/a/b/!<)! | g/f/e/g/!>(! f/e/d/c/ B/A/G/F/ E/G/F/E/!>)! | %14
!mp! D/E/F/G/ A/E/A/G/ F/B/A/G/ A/G/F/E/ | D/B,/B/c/ d/c/B/A/ G/F/E/B/ A/B/A/G/ | %16
 F!mf!!wedge!f !tenuto!e2 z .vd f2 | b2 a2!<(! b2 ^c'2!<)! |!>(! !wedge!d'.d ^c2!>)! z!mp! .vB d2 | %19
 d3 d !tenuto!d!tenuto!g !tenuto!e!tenuto!a | %20
!mf! (a/f/4g/4) (a/f/4g/4) .a/4(A/4B/4^c/4d/4e/4f/4g/4) f/(d/4e/4) .f/(F/4G/4) (A/4B/4A/4G/4A/4F/4G/4A/4) | %21
 (G/B/4A/4 G/F/4E/4) (F/4E/4D/4E/4F/4G/4A/4B/4) (G/B/4A/4 B/c/4d/4) (A/4B/4^c/4d/4e/4f/4g/4a/4) | %22
 (f/d/4e/4 f/d/4e/4) (f/4F/4G/4A/4B/4^c/4d/4e/4) (d/B/4=c/4) .d/(D/4E/4) (F/4G/4F/4E/4F/4d/4c/4d/4) | %23
 (B/d/4c/4 B/A/4G/4) (A/4G/4F/4G/4A/4B/4c/4d/4) (B/d/4c/4 d/c/4.B/4)!>(! (^c/4d/4e/4d/4c/4d/4B/4c/4)!>)! | %24
!mp! !wedge!d z !wedge!c z !wedge!B z !wedge!d z | !wedge!D z !wedge!D z !wedge!D z !wedge!E z | %26
 z!p! .A z .A z .F z .A | z .G z .F z .G z .e | %28
!mf! !wedge!f/F/G/F/ !wedge!E/e/f/e/ !wedge!d/F/D/B/ !wedge!A/A,/G,/A,/ | %29
 !wedge!B,/B/c/B/ !wedge!A/A,/G,/A,/ !wedge!B,/B/A/B/ !wedge!^c/^C/B,/C/ | %30
 !wedge!D/d/e/d/ !wedge!^c/C/D/C/ !wedge!B,/B/A/B/ !wedge!=c/C/F/E/ | %31
 !wedge!D/d/e/g/ !wedge!f/F/A/f/ !wedge!d/g/f/g/ !wedge!e/A/G/A/ | %32
!mp! F/A/A/A/ A/A/A/A/ F/F/F/F/ F/F/A/A/ | G/G/G/d/ d/d/d/d/ d/d/B/B/ A/A/e/^c/ | %34
 A/f/f/f/ e/e/e/e/ d/d/d/d/ a/a/a/a/ | b/b/b/b/ a/a/a/a/!<(! b/b/b/b/ ^c'/^c/c/c/!<)! | %36
!mf! !wedge!d/(D/4E/4F/).D/ !wedge!^C/(^c/4d/4e/).c/ !wedge!B/(B,/4=C/4D/).B,/ !wedge!C/(A/4G/4F/).E/ | %37
 !wedge!D/(G/4F/4E/).G/ !wedge!F/(D/4E/4F/).A/ !wedge!G/(B/4A/4G/).F/ !wedge!E/(A/4G/4F/).E/ | %38
 !wedge!F/(d/4c/4d/).F/ !wedge!A/(A/4B/4^c/).A/ !wedge!F/(d/4e/4f/).d/ !wedge!f/(f/4e/4d/).c/ | %39
 !wedge!B/(B/4A/4B/).c/ !wedge!d/(f/4e/4d/).f/ !wedge!g/(d/4c/4B/).B/ A/E/A/A/ | %40
 A3"_poco meno" A D3 A | G2 A2 GD T^C>C | Dvd !tenuto!^c2 !tenuto!B2 !tenuto!A2 | %43
 D>E !tenuto!F2 !tenuto!B2 E>E | F>f"_espr." (f/g/)(f/e/) d>d (d/e/)(d/c/) | %45
 B2 d2 (d/c/)(B/^c/) A>A | A>a (a/b/)(a/g/) f>f (f/g/)(f/e/) | (d/c/)(B/^c/) A>A Gd c>c | %48
 d!mf! vd2 c2 B2 A- | A G2 F- F>E E2 | F f2 e d d'2 ^c' |!<(! b2 d'a b2 a2!<)! | %52
!f! a2 (A>G) F2 (f>e) | d3 d d2 ^c2 | %54
 !tenuto!d!tenuto!D!tenuto!^C!tenuto!^c !tenuto!B!tenuto!B,!tenuto!A,!tenuto!A | %55
"_cresc." !tenuto!G!tenuto!g!tenuto!f!tenuto!F !tenuto!E!tenuto!B!tenuto!E!tenuto!e | %56
!ff! fFEe dDCc | BbaA G>e AA | A3 z z4 |] %59
V:2
 z8 | z8 | z8 | z8 | z8 | z8 |!p!"_espr." f2 e2 d2 c2 | B2 A2 B2 ^c2 | d2 ^c2 B2 A2 | %9
!>(! G2 F2 G2 E2!>)! | (DF) (AG) (FD) (FE) | (DB,) (DA) (GB) (AG) | (FD)"_cresc." (Ec) (df) (aA) | %13
 (BG) (AF) Dd T^c>d |!mf! d/^c/d/D/ ^C/A/!<(!E/F/ D/d/=c/B/ c/f/a/b/!<)! | %15
 g/f/e/g/!>(! f/e/d/c/ B/A/G/F/ E/G/F/E/!>)! |!mp! D/E/F/G/ A/E/A/G/ F/B/A/G/ A/G/F/E/ | %17
 D/B,/B/c/ d/c/B/A/ G/F/E/B/ A/B/A/G/ | F!mf!!wedge!f !tenuto!e2 z .vd f2 | b2 a2!<(! b2 ^c'2!<)! | %20
!>(! !wedge!d'.d ^c2!>)! z!mp! .vB d2 | d3 d !tenuto!d!tenuto!g !tenuto!e!tenuto!a | %22
!mf! (a/f/4g/4) (a/f/4g/4) .a/4(A/4B/4^c/4d/4e/4f/4g/4) f/(d/4e/4) .f/(F/4G/4) (A/4B/4A/4G/4A/4F/4G/4A/4) | %23
 (G/B/4A/4 G/F/4E/4) (F/4E/4D/4E/4F/4G/4A/4B/4) (G/B/4A/4 B/c/4d/4) (A/4B/4^c/4d/4e/4f/4g/4a/4) | %24
 (f/d/4e/4 f/d/4e/4) (f/4F/4G/4A/4B/4^c/4d/4e/4) (d/B/4=c/4) .d/(D/4E/4) (F/4G/4F/4E/4F/4d/4c/4d/4) | %25
 (B/d/4c/4 B/A/4G/4) (A/4G/4F/4G/4A/4B/4c/4d/4) (B/d/4c/4 d/c/4.B/4)!>(! (^c/4d/4e/4d/4c/4d/4B/4c/4)!>)! | %26
!mp! !wedge!d z !wedge!c z !wedge!B z !wedge!d z | !wedge!D z !wedge!D z !wedge!D z !wedge!E z | %28
 z!p! .A z .A z .F z .A | z .G z .F z .G z .e | %30
!mf! !wedge!f/F/G/F/ !wedge!E/e/f/e/ !wedge!d/F/D/B/ !wedge!A/A,/G,/A,/ | %31
 !wedge!B,/B/c/B/ !wedge!A/A,/G,/A,/ !wedge!B,/B/A/B/ !wedge!^c/^C/B,/C/ | %32
 !wedge!D/d/e/d/ !wedge!^c/C/D/C/ !wedge!B,/B/A/B/ !wedge!=c/C/F/E/ | %33
 !wedge!D/d/e/g/ !wedge!f/F/A/f/ !wedge!d/g/f/g/ !wedge!e/A/G/A/ | %34
!mp! F/A/A/A/ A/A/A/A/ F/F/F/F/ F/F/A/A/ | G/G/G/d/ d/d/d/d/ d/d/B/B/ A/A/e/^c/ | %36
 A/f/f/f/ e/e/e/e/ d/d/d/d/ a/a/a/a/ | b/b/b/b/ a/a/a/a/!<(! b/b/b/b/ ^c'/^c/c/c/!<)! | %38
!mf! !wedge!d/(D/4E/4F/).D/ !wedge!^C/(^c/4d/4e/).c/ !wedge!B/(B,/4=C/4D/).B,/ !wedge!C/(A/4G/4F/).E/ | %39
 !wedge!D/(G/4F/4E/).G/ !wedge!F/(D/4E/4F/).A/ !wedge!G/(B/4A/4G/).F/ !wedge!E/(A/4G/4F/).E/ | %40
 !wedge!F/(d/4c/4d/).F/ !wedge!A/(A/4B/4^c/).A/ !wedge!F/(d/4e/4f/).d/ !wedge!f/(f/4e/4d/).c/ | %41
 !wedge!B/(B/4A/4B/).c/ !wedge!d/(f/4e/4d/).f/ !wedge!g/(d/4c/4B/).B/ A/E/A/A/ | %42
 A3"_poco meno" A D3 A | G2 A2 GD T^C>C | Dvd !tenuto!^c2 !tenuto!B2 !tenuto!A2 | %45
 D>E !tenuto!F2 !tenuto!B2 E>E | F>f"_espr." (f/g/)(f/e/) d>d (d/e/)(d/c/) | %47
 B2 d2 (d/c/)(B/^c/) A>A | A>a (a/b/)(a/g/) f>f (f/g/)(f/e/) | (d/c/)(B/^c/) A>A Gd c>c | %50
 d!mf! vd2 c2 B2 A- | A G2 F- F>E E2 | F f2 e d d'2 ^c' |!<(! b2 d'a b2 a2!<)! | %54
!f! a2 (A>G) F2 (f>e) | d3 d d2 ^c2 | %56
 !tenuto!d!tenuto!D!tenuto!^C!tenuto!^c !tenuto!B!tenuto!B,!tenuto!A,!tenuto!A | %57
"_cresc." !tenuto!G!tenuto!g!tenuto!f!tenuto!F !tenuto!E!tenuto!B!tenuto!E!tenuto!e | %58
!ff! ^f3 z z4 |] %59
V:3
 z8 | z8 | z8 | z8 | z8 | z8 | z8 | z8 |!p!"_espr." f2 e2 d2 c2 | B2 A2 B2 ^c2 | d2 ^c2 B2 A2 | %11
!>(! G2 F2 G2 E2!>)! | (DF) (AG) (FD) (FE) | (DB,) (DA) (GB) (AG) | (FD)"_cresc." (Ec) (df) (aA) | %15
 (BG) (AF) Dd T^c>d |!mf! d/^c/d/D/ ^C/A/!<(!E/F/ D/d/=c/B/ c/f/a/b/!<)! | %17
 g/f/e/g/!>(! f/e/d/c/ B/A/G/F/ E/G/F/E/!>)! |!mp! D/E/F/G/ A/E/A/G/ F/B/A/G/ A/G/F/E/ | %19
 D/B,/B/c/ d/c/B/A/ G/F/E/B/ A/B/A/G/ | F!mf!!wedge!f !tenuto!e2 z .vd f2 | b2 a2!<(! b2 ^c'2!<)! | %22
!>(! !wedge!d'.d ^c2!>)! z!mp! .vB d2 | d3 d !tenuto!d!tenuto!g !tenuto!e!tenuto!a | %24
!mf! (a/f/4g/4) (a/f/4g/4) .a/4(A/4B/4^c/4d/4e/4f/4g/4) f/(d/4e/4) .f/(F/4G/4) (A/4B/4A/4G/4A/4F/4G/4A/4) | %25
 (G/B/4A/4 G/F/4E/4) (F/4E/4D/4E/4F/4G/4A/4B/4) (G/B/4A/4 B/c/4d/4) (A/4B/4^c/4d/4e/4f/4g/4a/4) | %26
 (f/d/4e/4 f/d/4e/4) (f/4F/4G/4A/4B/4^c/4d/4e/4) (d/B/4=c/4) .d/(D/4E/4) (F/4G/4F/4E/4F/4d/4c/4d/4) | %27
 (B/d/4c/4 B/A/4G/4) (A/4G/4F/4G/4A/4B/4c/4d/4) (B/d/4c/4 d/c/4.B/4)!>(! (^c/4d/4e/4d/4c/4d/4B/4c/4)!>)! | %28
!mp! !wedge!d z !wedge!c z !wedge!B z !wedge!d z | !wedge!D z !wedge!D z !wedge!D z !wedge!E z | %30
 z!p! .A z .A z .F z .A | z .G z .F z .G z .e | %32
!mf! !wedge!f/F/G/F/ !wedge!E/e/f/e/ !wedge!d/F/D/B/ !wedge!A/A,/G,/A,/ | %33
 !wedge!B,/B/c/B/ !wedge!A/A,/G,/A,/ !wedge!B,/B/A/B/ !wedge!^c/^C/B,/C/ | %34
 !wedge!D/d/e/d/ !wedge!^c/C/D/C/ !wedge!B,/B/A/B/ !wedge!=c/C/F/E/ | %35
 !wedge!D/d/e/g/ !wedge!f/F/A/f/ !wedge!d/g/f/g/ !wedge!e/A/G/A/ | %36
!mp! F/A/A/A/ A/A/A/A/ F/F/F/F/ F/F/A/A/ | G/G/G/d/ d/d/d/d/ d/d/B/B/ A/A/e/^c/ | %38
 A/f/f/f/ e/e/e/e/ d/d/d/d/ a/a/a/a/ | b/b/b/b/ a/a/a/a/!<(! b/b/b/b/ ^c'/^c/c/c/!<)! | %40
!mf! !wedge!d/(D/4E/4F/).D/ !wedge!^C/(^c/4d/4e/).c/ !wedge!B/(B,/4=C/4D/).B,/ !wedge!C/(A/4G/4F/).E/ | %41
 !wedge!D/(G/4F/4E/).G/ !wedge!F/(D/4E/4F/).A/ !wedge!G/(B/4A/4G/).F/ !wedge!E/(A/4G/4F/).E/ | %42
 !wedge!F/(d/4c/4d/).F/ !wedge!A/(A/4B/4^c/).A/ !wedge!F/(d/4e/4f/).d/ !wedge!f/(f/4e/4d/).c/ | %43
 !wedge!B/(B/4A/4B/).c/ !wedge!d/(f/4e/4d/).f/ !wedge!g/(d/4c/4B/).B/ A/E/A/A/ | %44
 A3"_poco meno" A D3 A | G2 A2 GD T^C>C | Dvd !tenuto!^c2 !tenuto!B2 !tenuto!A2 | %47
 D>E !tenuto!F2 !tenuto!B2 E>E | F>f"_espr." (f/g/)(f/e/) d>d (d/e/)(d/c/) | %49
 B2 d2 (d/c/)(B/^c/) A>A | A>a (a/b/)(a/g/) f>f (f/g/)(f/e/) | (d/c/)(B/^c/) A>A Gd c>c | %52
 d!mf! vd2 c2 B2 A- | A G2 F- F>E E2 | F f2 e d d'2 ^c' |!<(! b2 d'a b2 a2!<)! | %56
!f! a2 (A>G) F2 (f>e) | d3 d d2 ^c2 | d3 z z4 |] %59
V:4
!mf! D,2!<(! A,,2 B,,2 F,,2!<)! | G,,2!>(! D,,2 G,,2 A,,2!>)! |!p! D,2"_sempre" A,,2 B,,2 F,,2 | %3
 G,,2 D,,2 G,,2 A,,2 | D,2 A,,2 B,,2 F,,2 | G,,2 D,,2 G,,2 A,,2 | D,2 A,,2 B,,2 F,,2 | %7
 G,,2 D,,2 G,,2 A,,2 | D,2 A,,2 B,,2 F,,2 | G,,2 D,,2 G,,2 A,,2 | D,2 A,,2 B,,2 F,,2 | %11
 G,,2 D,,2 G,,2 A,,2 | D,2 A,,2 B,,2 F,,2 | G,,2 D,,2 G,,2 A,,2 | D,2 A,,2 B,,2 F,,2 | %15
 G,,2 D,,2 G,,2 A,,2 | D,2 A,,2 B,,2 F,,2 | G,,2 D,,2 G,,2 A,,2 | D,2 A,,2 B,,2 F,,2 | %19
 G,,2 D,,2 G,,2 A,,2 | D,2 A,,2 B,,2 F,,2 | G,,2 D,,2 G,,2 A,,2 | D,2 A,,2 B,,2 F,,2 | %23
 G,,2 D,,2 G,,2 A,,2 | D,2 A,,2 B,,2 F,,2 | G,,2 D,,2 G,,2 A,,2 | D,2 A,,2 B,,2 F,,2 | %27
 G,,2 D,,2 G,,2 A,,2 | D,2 A,,2 B,,2 F,,2 | G,,2 D,,2 G,,2 A,,2 | D,2 A,,2 B,,2 F,,2 | %31
 G,,2 D,,2 G,,2 A,,2 | D,2 A,,2 B,,2 F,,2 | G,,2 D,,2 G,,2 A,,2 | D,2 A,,2 B,,2 F,,2 | %35
 G,,2 D,,2 G,,2 A,,2 | D,2 A,,2 B,,2 F,,2 | G,,2 D,,2 G,,2 A,,2 | D,2 A,,2 B,,2 F,,2 | %39
 G,,2 D,,2 G,,2 A,,2 | D,2 A,,2 B,,2 F,,2 | G,,2 D,,2 G,,2 A,,2 | D,2 A,,2 B,,2 F,,2 | %43
 G,,2 D,,2 G,,2 A,,2 |"_cresc." D,2 A,,2 B,,2 F,,2 | G,,2 D,,2 G,,2 A,,2 |!mf! D,2 A,,2 B,,2 F,,2 | %47
 G,,2 D,,2 G,,2 A,,2 | D,2 A,,2 B,,2 F,,2 | G,,2 D,,2 G,,2 A,,2 | D,2 A,,2 B,,2 F,,2 | %51
 G,,2 D,,2 G,,2 A,,2 | D,2 A,,2 B,,2 F,,2 | G,,2 D,,2 G,,2 A,,2 |"_cresc." D,2 A,,2 B,,2 F,,2 | %55
 G,,2 D,,2 G,,2 A,,2 |!f! D,2 A,,2 B,,2 F,,2 | G,,2 D,,2 G,,2 A,,2 |!ff! D,3 z z4 |] %59

